X:1
T:Title
%%score 1 { 2 | 3 }
L:1/8
Q:1/4=85
M:6/8
K:G
V:1 treble nm="Grand Piano, Soprano"
V:2 bass nm="Choir Pad, Turned Away"
V:3 bass 
V:1
 [B,D][B,D][B,D] [B,D]2 [B,D]/[B,D]/ | [CE]2 [CE] [B,D]2 [B,D] | [DG][DG][DG] [DG][DG][DG] | %3
w: By~David~Elijah~Dortch * * * * *|||
 [FA]2 [GB] [FA]2 [Ae] | [Gd]<[Gd][Gd] [Ge][Gd][DB] | [EA][EG][CE] [B,D]2 [DG]/>[DG]/ | %6
w: |||
 [DG]2 [DG]/>[DG]/ [GB][GB][FA] | G3- G3/2 z/ [Gd]/>[Gd]/ | [Gd]2 [Gd]/>[Gd]/ [Gd][Ge][Gd] | %9
w: |||
 [GB]3- [GB]3/2 z/ [FA]/>[FA]/ | [FA]2 [FA]/>[FA]/ [FA][GB][FA] | G3- G3/2 z/ [Gd] | %12
w: |||
 [Gd]<[Gd][Gd] [Ge][Gd][DB] | [EA][EG][CE] [B,D]2 [DG]/>[DG]/ | [DG]2 [DG]/>[DG]/ [GB][GB][FA] | %15
w: |||
 G6- | G3 z3 |] %17
w: ||
V:2
 G,G,G, G,2 G,/G,/ | G,2 G, G,2 G, | B,B,B, B,B,B, | D2 D D2 C | B,<[K:bass]B,B, CB,D | %5
 CCG, G,2 B,/>B,/ | B,2 B,/>B,/[K:treble] DDC | B,3- B,3/2 z/[K:bass] B,/>B,/ | %8
 B,2 B,/>B,/ B,[K:treble]CB, | D3- D3/2 z/ D/>D/ | D2 D/>D/ DDC | B,3- B,3/2 z/ B, | %12
 B,<B,B,[K:treble] CB,D | CC[K:bass]G, G,2 B,/>B,/ | B,2 B,/>B,/[K:treble] DDC | B,6- | B,3 z3 |] %17
V:3
 G,,G,,G,, G,,2 G,,/G,,/ | C,2 C, G,,2 G,, | G,G,G, G,G,G, | D,2 D, D,2 F, | G,<G,G, G,G,G, | %5
 C,C,C, G,,2 G,/>G,/ | G,2 G,/>G,/ D,D,D, | [G,,G,]3- [G,,G,]3/2 z/ G,/>G,/ | G,2 G,/>G,/ G,G,G, | %9
 G,3- G,3/2 z/ D,/>D,/ | D,2 D,/>D,/ D,D,D, | G,3- G,3/2 z/ G, | G,<G,G, G,G,G, | %13
 C,C,C, G,,2 G,/>G,/ | G,2 G,/>G,/ D,D,D, | [G,,G,]6- | [G,,G,]3 z3 |] %17

